!!!OTL: Das faule Weibchen (225a), S. 483
!!!id: T0408
**kern
*clefG2
*k[f#]
*G:
{8d
=1
8d
8b
16a
8a
16g
=2
8f#
8g
8a}
=3
{8a
=4
8a
8a
8a
8a
=5
4d}
8r
=6
{8d
=7
8dd
8dd
8dd
8dd
=8
4dd
4a}
=9
{8dd
8dd
8dd
8dd
=10
8dd
8a
8b}
=11
{8dd
=12
16b
16b
8g
8a
8f#
=13
4g}
8r
==
*-
!!!minrhy: 16
!!!meters: 2/4 ]  ZZ[5
!!!cut: Das faule Weibchen (225a), S. 483
!!!reg: Luxemburg
!!!trd: Singendes Volk, Esch-Alzette, 1937 posth.
!!!rhy1: X_  X_X_XX_X  X_X_X_
!!!rhy2: X_  X_X_X_X_  X__0_
!!!key: T0408  16  G 2/4 ]  ZZ[5
!!!mod: PENTATONIK ]  AMBITUS[8
!!!kad: 2-5231
!!!akz: -5-7_2-5_55_55_31_
!!!fot: 'a__b__c__cw_d__
!!!for: 'a__b__bw_bw_c__
!!!fok: '~a_\__^a_\__\__
!! PHRAS[VORWIEGEND AUFTAKTIG]
!!!fkt: Berufslied
!!!bem: StraPen, fff Witry, 10.1.1933
!! THILL; Mathias
!! PR[44] 2K[0] 2G[16] 3K[7] 3G[0] 4A[0] 4Ü[0] 5A[4] 6K[0] 6G[0]
!! 7K[0] 7G[0] 8A[0] MEHR[0] SI[26] ABS[57] SR[16] SP[11]
!! ST[18] 2k[0] 2g[18] 3k[7] 3g[0] 4d[2] 4ü[0] 5d[4] 6k[0] 6g[0]
!! 7k[0] 7g[0] 8d[0] mehr[0] si[30] dm[-4] sr[18] sp[12]
!! 1F[88] 2F[13] 3F[0] 4F[0] LF[0] 2P[0] 3P[0] 4P[0] TRI[0] DF[2] AB[64]
!! TF[0] U3K[0] U3[0] U4[0] U4Ü[0] U5[0] U6K[0] U6[0] U7K[0] U7[0]
!! N1[10] N2K[0] N2[21] N3K[0] N3[21] N4[0] N4Ü[0] N5[45] N6K[0] N6[3]
!!!n7k: 0] N7[0] O1[0] O2K[0] O2[0] O3K[0] O3[0] HÖ[0
